X: 37359
T: Slängpolska Från Vrigstad
R: waltz
M: 3/4
K: Dmajor
L: 1/16
|:d3c dcdc dcde|f3e d2c2 B2A2|B3A BABA BABc|d3c B2A2 G2F2|E2G2 B2e2 g2e2|dcBc e4 d4:|
|:f3f d2d2 e2de|f2ef g2g2e2e2|f3f d2d2 e2de|fedc c2d2d4:|

